;FLAVOR:Marlin
;TIME:2766
;Filament used: 2.87764m
;Layer height: 0.1
;MINX:60.543
;MINY:89.293
;MINZ:0.12
;MAXX:180.707
;MAXY:129.457
;MAXZ:6.82
;TARGET_MACHINE.NAME:ELEGOO NEPTUNE 4 Pro
;Generated with Cura_SteamEngine 5.8.0
M82 ;absolute extrusion mode
;ELEGOO NEPTUNE 4 / 4 PRO
M220 S100 ;Set the feed speed to 100%
M221 S100 ;Set the flow rate to 100%
M104 S140 ;Start heating extruder
M190 S60 ;Wait for the bed to reach print temp
G90
G28 ;home
G1 Z10 F300
G1 X67.5 Y0 F6000
G1 Z0 F300
M109 S210 ;Wait for extruder to reach print temp
G92 E0 ;Reset Extruder
G1 X67.5 Y0 Z0.4 F300 ;Move to start position
G1 X167.5 E30 F400 ;Draw the first line
G1 Z0.6 F120.0 ;Move to side a little
G1 X162.5 F3000
G92 E0 ;Reset Extruder
G92 E0
G92 E0
G1 F2700 E-0.5
;LAYER_COUNT:68
;LAYER:0
M107
M204 S500
G0 F7200 X63.244 Y90.207 Z0.12
;TYPE:SKIRT
G1 F2700 E0
G1 F3600 X64.392 Y89.621 E0.03376
G1 X65.806 Y89.293 E0.07178
G1 X115.409 Y89.293 E1.371
G1 X116.808 Y89.563 E1.40832
G1 X117.772 Y90.071 E1.43686
G1 X118.914 Y90.86 E1.47321
G1 X119.791 Y91.997 E1.51083
G1 X120.236 Y92.776 E1.53432
G1 X120.647 Y94.095 E1.57051
G1 X120.997 Y92.852 E1.60433
G1 X121.697 Y91.584 E1.64227
G1 X122.491 Y90.798 E1.67153
G1 X123.244 Y90.207 E1.6966
G1 X124.392 Y89.621 E1.73036
G1 X125.806 Y89.293 E1.76838
G1 X175.409 Y89.293 E3.0676
G1 X176.808 Y89.563 E3.10492
G1 X177.772 Y90.071 E3.13346
G1 X178.914 Y90.86 E3.16982
G1 X179.791 Y91.997 E3.20743
G1 X180.236 Y92.776 E3.23093
G1 X180.707 Y94.289 E3.27243
G1 X180.707 Y104.282 E3.53417
G1 X180.255 Y105.892 E3.57797
G1 X179.565 Y107.152 E3.6156
G1 X178.814 Y107.904 E3.64344
G1 X178.017 Y108.534 E3.67005
G1 X176.851 Y109.137 E3.70443
G1 X175.822 Y109.373 E3.73208
G1 X176.808 Y109.563 E3.75838
G1 X177.772 Y110.071 E3.78692
G1 X178.914 Y110.86 E3.82328
G1 X179.791 Y111.997 E3.86089
G1 X180.236 Y112.776 E3.88439
G1 X180.707 Y114.289 E3.92589
G1 X180.707 Y124.282 E4.18763
G1 X180.256 Y125.89 E4.23138
G1 X179.566 Y127.154 E4.26909
G1 X178.731 Y127.972 E4.29971
G1 X177.891 Y128.614 E4.3274
G1 X176.857 Y129.129 E4.35766
G1 X175.443 Y129.457 E4.39568
G1 X125.69 Y129.456 E5.69883
G1 X123.871 Y128.936 E5.74838
G1 X122.331 Y127.891 E5.79712
G1 X121.49 Y126.764 E5.83396
G1 X120.895 Y125.731 E5.86518
G1 X120.629 Y124.559 E5.89666
G1 X120.256 Y125.889 E5.93284
G1 X119.566 Y127.153 E5.97056
G1 X118.731 Y127.972 E6.00119
G1 X117.891 Y128.614 E6.02888
G1 X116.857 Y129.129 E6.05914
G1 X115.443 Y129.457 E6.09716
G1 X65.69 Y129.456 E7.40031
G1 X63.871 Y128.936 E7.44986
G1 X62.331 Y127.891 E7.49861
G1 X61.49 Y126.764 E7.53544
G1 X60.895 Y125.731 E7.56666
G1 X60.543 Y124.178 E7.60837
G1 X60.543 Y114.463 E7.86283
G1 X60.997 Y112.852 E7.90667
G1 X61.697 Y111.584 E7.94461
G1 X62.491 Y110.798 E7.97387
G1 X63.244 Y110.207 E7.99894
G1 X64.392 Y109.621 E8.0327
G1 X65.427 Y109.381 E8.06053
G1 X63.871 Y108.936 E8.10292
G1 X62.331 Y107.891 E8.15166
G1 X61.49 Y106.764 E8.1885
G1 X60.895 Y105.731 E8.21972
G1 X60.543 Y104.178 E8.26143
G1 X60.543 Y94.463 E8.51589
G1 X60.997 Y92.852 E8.55973
G1 X61.697 Y91.584 E8.59766
G1 X62.491 Y90.798 E8.62693
G1 X63.244 Y90.207 E8.652
G1 F2700 E8.152
G0 F7200 X64.966 Y103.809
G0 X65.556 Y104.8
G0 X115.813 Y109.371
G1 F2700 E8.652
G1 F3600 X116.808 Y109.563 E8.67854
G1 X117.772 Y110.071 E8.70708
G1 X118.914 Y110.86 E8.74344
G1 X119.791 Y111.997 E8.78105
G1 X120.236 Y112.776 E8.80455
G1 X120.647 Y114.095 E8.84073
G1 X120.997 Y112.852 E8.87456
G1 X121.697 Y111.584 E8.91249
G1 X122.491 Y110.798 E8.94176
G1 X123.244 Y110.207 E8.96683
G1 X124.392 Y109.621 E9.00059
G1 X125.427 Y109.381 E9.02842
G1 X123.871 Y108.936 E9.07081
G1 X122.331 Y107.891 E9.11955
G1 X121.49 Y106.764 E9.15638
G1 X120.895 Y105.731 E9.18761
G1 X120.629 Y104.559 E9.21909
G1 X120.256 Y105.889 E9.25527
G1 X119.566 Y107.153 E9.29298
G1 X118.731 Y107.972 E9.32362
G1 X117.891 Y108.614 E9.35131
G1 X116.857 Y109.129 E9.38157
G1 X115.813 Y109.371 E9.40964
G0 F7200 X115.361 Y109.818
G1 F3600 X116.629 Y110.063 E9.44346
G1 X117.527 Y110.536 E9.47005
G1 X118.547 Y111.245 E9.50258
G1 X119.375 Y112.318 E9.53808
G1 X119.752 Y112.987 E9.5582
G1 X120.182 Y114.368 E9.59608
G1 X120.182 Y124.211 E9.85389
G1 X119.768 Y125.687 E9.89404
G1 X119.142 Y126.833 E9.92825
G1 X118.363 Y127.597 E9.95683
G1 X117.614 Y128.165 E9.98145
G1 X116.677 Y128.632 E10.00887
G1 X115.384 Y128.932 E10.04363
G1 X65.764 Y128.931 E11.3433
G1 X64.095 Y128.454 E11.38876
G1 X62.699 Y127.507 E11.43295
G1 X61.945 Y126.502 E11.46586
G1 X61.389 Y125.537 E11.49503
G1 X61.068 Y124.119 E11.53311
G1 X61.068 Y114.535 E11.78414
G1 X61.486 Y113.053 E11.82447
G1 X62.119 Y111.905 E11.8588
G1 X62.815 Y111.211 E11.88455
G1 X63.526 Y110.653 E11.90822
G1 X64.577 Y110.116 E11.93913
G1 X65.864 Y109.818 E11.97374
G1 X115.361 Y109.818 E13.27018
G0 F7200 X115.313 Y110.343
G1 F3600 X116.45 Y110.563 E13.30051
G1 X117.282 Y111.001 E13.32514
G1 X118.179 Y111.629 E13.35382
G1 X118.959 Y112.639 E13.38724
G1 X119.267 Y113.195 E13.40389
G1 X119.657 Y114.447 E13.43824
G1 X119.657 Y124.14 E13.69212
G1 X119.28 Y125.484 E13.72868
G1 X118.717 Y126.515 E13.75945
G1 X118.046 Y127.179 E13.78418
G1 X117.338 Y127.716 E13.80745
G1 X116.497 Y128.135 E13.83206
G1 X115.325 Y128.407 E13.86357
G1 X65.838 Y128.406 E15.15976
G1 X64.319 Y127.972 E15.20113
G1 X63.067 Y127.122 E15.24077
G1 X62.365 Y126.187 E15.27139
G1 X61.884 Y125.344 E15.29682
G1 X61.593 Y124.06 E15.3313
G1 X61.593 Y114.606 E15.57892
G1 X61.974 Y113.255 E15.61569
G1 X62.543 Y112.223 E15.64656
G1 X63.139 Y111.624 E15.66869
G1 X63.808 Y111.099 E15.69096
G1 X64.762 Y110.612 E15.71902
G1 X65.923 Y110.343 E15.75023
G1 X115.313 Y110.343 E17.04387
G0 F7200 X115.265 Y110.868
G1 F3600 X116.273 Y111.063 E17.07076
G1 X116.981 Y111.431 E17.09166
G1 X117.811 Y112.012 E17.1182
G1 X118.543 Y112.96 E17.14957
G1 X118.782 Y113.403 E17.16276
G1 X119.132 Y114.526 E17.19356
G1 X119.132 Y124.069 E17.44352
G1 X118.791 Y125.284 E17.47657
G1 X118.293 Y126.197 E17.50381
G1 X117.729 Y126.761 E17.5247
G1 X117.062 Y127.267 E17.54663
G1 X116.317 Y127.638 E17.56843
G1 X115.266 Y127.882 E17.59669
G1 X65.912 Y127.881 E18.88939
G1 X64.543 Y127.49 E18.92668
G1 X63.435 Y126.737 E18.96177
G1 X62.785 Y125.872 E18.99011
G1 X62.379 Y125.152 E19.01176
G1 X62.118 Y124.001 E19.04267
G1 X62.118 Y114.677 E19.28689
G1 X62.462 Y113.457 E19.32009
G1 X62.966 Y112.542 E19.34745
G1 X63.511 Y111.995 E19.36768
G1 X64.095 Y111.542 E19.38703
G1 X64.944 Y111.108 E19.41201
G1 X65.981 Y110.868 E19.43989
G1 X115.265 Y110.868 E20.73075
G0 F7200 X115.217 Y111.393
G1 F3600 X116.099 Y111.564 E20.75428
G1 X116.68 Y111.861 E20.77137
G1 X117.443 Y112.395 E20.79577
G1 X118.127 Y113.281 E20.82508
G1 X118.281 Y113.559 E20.83341
G1 X118.607 Y114.605 E20.86211
G1 X118.607 Y123.998 E21.10813
G1 X118.302 Y125.084 E21.13768
G1 X117.868 Y125.88 E21.16142
G1 X117.412 Y126.343 E21.17844
G1 X116.786 Y126.818 E21.19903
G1 X116.136 Y127.142 E21.21805
G1 X115.208 Y127.357 E21.243
G1 X65.986 Y127.356 E22.53224
G1 X64.767 Y127.008 E22.56544
G1 X63.802 Y126.352 E22.59601
G1 X63.242 Y125.614 E22.62027
G1 X62.874 Y124.962 E22.63988
G1 X62.643 Y123.942 E22.66727
G1 X62.643 Y114.748 E22.90809
G1 X62.95 Y113.659 E22.93772
G1 X63.391 Y112.859 E22.96165
G1 X63.833 Y112.41 E22.97815
G1 X64.381 Y111.985 E22.99632
G1 X65.126 Y111.604 E23.01823
G1 X66.038 Y111.393 E23.04275
G1 X115.217 Y111.393 E24.33086
G0 F7200 X115.168 Y111.918
G1 F3600 X115.925 Y112.065 E24.35106
G1 X116.379 Y112.291 E24.36435
G1 X117.075 Y112.778 E24.38659
G1 X117.711 Y113.602 E24.41386
G1 X117.796 Y113.767 E24.41872
G1 X118.082 Y114.684 E24.44388
G1 X118.082 Y123.927 E24.68598
G1 X117.813 Y124.884 E24.71201
G1 X117.442 Y125.565 E24.73233
G1 X117.094 Y125.925 E24.74544
G1 X116.507 Y126.371 E24.76475
G1 X115.955 Y126.646 E24.7809
G1 X115.151 Y126.832 E24.80252
G1 X66.06 Y126.831 E26.08833
G1 X64.991 Y126.526 E26.11744
G1 X64.168 Y125.966 E26.14352
G1 X63.699 Y125.356 E26.16367
G1 X63.369 Y124.772 E26.18124
G1 X63.168 Y123.883 E26.20511
G1 X63.168 Y114.819 E26.44252
G1 X63.438 Y113.861 E26.46859
G1 X63.815 Y113.177 E26.48905
G1 X64.155 Y112.825 E26.50186
G1 X64.667 Y112.428 E26.51883
G1 X65.304 Y112.102 E26.53758
G1 X66.1 Y111.918 E26.55898
G1 X115.168 Y111.918 E27.84418
G0 F7200 X115.12 Y112.443
G1 F3600 X115.755 Y112.566 E27.86112
G1 X116.078 Y112.721 E27.87051
G1 X116.707 Y113.161 E27.89061
G1 X117.295 Y113.923 E27.91582
G1 X117.557 Y114.763 E27.93887
G1 X117.557 Y123.856 E28.17704
G1 X117.324 Y124.684 E28.19957
G1 X117.015 Y125.251 E28.21648
G1 X116.776 Y125.507 E28.22565
G1 X116.228 Y125.924 E28.24369
G1 X115.778 Y126.148 E28.25686
G1 X115.089 Y126.307 E28.27538
G1 X66.134 Y126.306 E29.55762
G1 X65.215 Y126.044 E29.58265
G1 X64.533 Y125.58 E29.60426
G1 X64.115 Y125.036 E29.62223
G1 X63.864 Y124.582 E29.63582
G1 X63.693 Y123.825 E29.65614
G1 X63.693 Y114.891 E29.89015
G1 X63.927 Y114.062 E29.91271
G1 X64.241 Y113.491 E29.92978
G1 X64.477 Y113.24 E29.9388
G1 X64.953 Y112.871 E29.95457
G1 X65.482 Y112.6 E29.97014
G1 X66.162 Y112.443 E29.98842
G1 X115.12 Y112.443 E31.27075
G0 F7200 X115.072 Y112.968
G1 F3600 X115.588 Y113.068 E31.28451
G1 X115.777 Y113.151 E31.28992
G1 X116.339 Y113.544 E31.30788
G1 X116.823 Y114.171 E31.32863
G1 X117.032 Y114.842 E31.34704
G1 X117.032 Y123.785 E31.58127
G1 X116.835 Y124.484 E31.6003
G1 X116.584 Y124.944 E31.61402
G1 X116.454 Y125.092 E31.61918
G1 X115.976 Y125.463 E31.63503
G1 X115.66 Y125.636 E31.64447
G1 X115.027 Y125.782 E31.66148
G1 X66.208 Y125.781 E32.94017
G1 X65.439 Y125.562 E32.96111
G1 X64.898 Y125.194 E32.97825
G1 X64.531 Y124.716 E32.99403
G1 X64.359 Y124.394 E33.00359
G1 X64.218 Y123.768 E33.0204
G1 X64.218 Y114.963 E33.25102
G1 X64.416 Y114.263 E33.27008
G1 X64.67 Y113.801 E33.28389
G1 X64.799 Y113.655 E33.28899
G1 X65.275 Y113.286 E33.30476
G1 X65.6 Y113.112 E33.31442
G1 X66.224 Y112.968 E33.33119
G1 X115.072 Y112.968 E34.61064
G1 F2700 E34.11064
G0 F7200 X115.072 Y114.018
G1 F2700 E34.61064
G1 F3600 X115.261 Y114.071 E34.61578
G1 X115.672 Y114.359 E34.62892
G1 X115.918 Y114.715 E34.64026
G1 X115.982 Y114.921 E34.64591
G1 X115.982 Y123.714 E34.87622
G1 X115.831 Y124.18 E34.88905
G1 X115.732 Y124.323 E34.8936
G1 X115.332 Y124.634 E34.90687
G1 X114.965 Y124.732 E34.91682
G1 X66.281 Y124.731 E36.19197
G1 X65.815 Y124.578 E36.20482
G1 X65.672 Y124.478 E36.20939
G1 X65.363 Y124.076 E36.22267
G1 X65.268 Y123.711 E36.23255
G1 X65.268 Y115.035 E36.45979
G1 X65.42 Y114.569 E36.47263
G1 X65.519 Y114.426 E36.47719
G1 X65.919 Y114.116 E36.49044
G1 X66.286 Y114.018 E36.50039
G1 X115.072 Y114.018 E37.77821
G0 F7200 X115.072 Y113.493
G1 F3600 X115.476 Y113.581 E37.78904
G1 X115.973 Y113.929 E37.80493
G1 X116.35 Y114.417 E37.82109
G1 X116.507 Y114.921 E37.83491
G1 X116.507 Y123.714 E38.06522
G1 X116.33 Y124.342 E38.08231
G1 X116.132 Y124.677 E38.0925
G1 X115.654 Y125.048 E38.10835
G1 X115.472 Y125.14 E38.11369
G1 X114.965 Y125.257 E38.12732
G1 X66.281 Y125.256 E39.40247
G1 X65.651 Y125.077 E39.41963
G1 X65.314 Y124.874 E39.42993
G1 X64.947 Y124.396 E39.44571
G1 X64.855 Y124.208 E39.4512
G1 X64.743 Y123.711 E39.46454
G1 X64.743 Y115.035 E39.69179
G1 X64.921 Y114.406 E39.70891
G1 X65.121 Y114.07 E39.71915
G1 X65.597 Y113.701 E39.73492
G1 X65.784 Y113.609 E39.74038
G1 X66.286 Y113.493 E39.75388
G1 X115.072 Y113.493 E41.0317
G1 F2700 E40.5317
G0 F7200 X116.677 Y108.632
G1 F2700 E41.0317
G1 F3600 X115.384 Y108.932 E41.06646
G1 X65.764 Y108.931 E42.36613
G1 X64.095 Y108.454 E42.41159
G1 X62.699 Y107.507 E42.45578
G1 X61.945 Y106.502 E42.48869
G1 X61.389 Y105.537 E42.51786
G1 X61.068 Y104.119 E42.55594
G1 X61.068 Y94.535 E42.80697
G1 X61.486 Y93.053 E42.8473
G1 X62.119 Y91.905 E42.88163
G1 X62.815 Y91.211 E42.90738
G1 X63.526 Y90.653 E42.93105
G1 X64.577 Y90.116 E42.96196
G1 X65.864 Y89.818 E42.99657
G1 X115.361 Y89.818 E44.29301
G1 X116.629 Y90.063 E44.32684
G1 X117.527 Y90.536 E44.35342
G1 X118.547 Y91.245 E44.38596
G1 X119.375 Y92.318 E44.42145
G1 X119.752 Y92.987 E44.44157
G1 X120.182 Y94.368 E44.47945
G1 X120.182 Y104.211 E44.73726
G1 X119.768 Y105.687 E44.77742
G1 X119.142 Y106.833 E44.81162
G1 X118.363 Y107.597 E44.8402
G1 X117.614 Y108.165 E44.86482
G1 X116.677 Y108.632 E44.89224
G0 F7200 X116.497 Y108.135
G1 F3600 X115.325 Y108.407 E44.92375
G1 X65.838 Y108.406 E46.21993
G1 X64.319 Y107.972 E46.26131
G1 X63.067 Y107.122 E46.30095
G1 X62.365 Y106.187 E46.33157
G1 X61.884 Y105.344 E46.35699
G1 X61.593 Y104.06 E46.39148
G1 X61.593 Y94.606 E46.6391
G1 X61.974 Y93.255 E46.67587
G1 X62.543 Y92.223 E46.70673
G1 X63.139 Y91.624 E46.72887
G1 X63.808 Y91.099 E46.75114
G1 X64.762 Y90.612 E46.7792
G1 X65.923 Y90.343 E46.81041
G1 X115.313 Y90.343 E48.10405
G1 X116.45 Y90.563 E48.13438
G1 X117.282 Y91.001 E48.15901
G1 X118.179 Y91.629 E48.18769
G1 X118.959 Y92.639 E48.22112
G1 X119.267 Y93.195 E48.23776
G1 X119.657 Y94.447 E48.27211
G1 X119.657 Y104.14 E48.52599
G1 X119.28 Y105.484 E48.56256
G1 X118.717 Y106.515 E48.59332
G1 X118.046 Y107.179 E48.61805
G1 X117.338 Y107.716 E48.64132
G1 X116.497 Y108.135 E48.66593
G0 F7200 X116.317 Y107.638
G1 F3600 X115.266 Y107.882 E48.69419
G1 X65.912 Y107.881 E49.98689
G1 X64.543 Y107.49 E50.02418
G1 X63.435 Y106.737 E50.05927
G1 X62.785 Y105.872 E50.08761
G1 X62.379 Y105.152 E50.10926
G1 X62.118 Y104.001 E50.14018
G1 X62.118 Y94.677 E50.38439
G1 X62.462 Y93.457 E50.41759
G1 X62.966 Y92.542 E50.44495
G1 X63.511 Y91.995 E50.46518
G1 X64.095 Y91.542 E50.48454
G1 X64.944 Y91.108 E50.50951
G1 X65.981 Y90.868 E50.53739
G1 X115.265 Y90.868 E51.82826
G1 X116.273 Y91.063 E51.85515
G1 X116.981 Y91.431 E51.87605
G1 X117.811 Y92.012 E51.90258
G1 X118.543 Y92.96 E51.93395
G1 X118.782 Y93.403 E51.94714
G1 X119.132 Y94.526 E51.97795
G1 X119.132 Y104.069 E52.2279
G1 X118.791 Y105.284 E52.26096
G1 X118.293 Y106.197 E52.28819
G1 X117.729 Y106.761 E52.30909
G1 X117.062 Y107.267 E52.33101
G1 X116.317 Y107.638 E52.35281
G0 F7200 X116.136 Y107.142
G1 F3600 X115.208 Y107.357 E52.37776
G1 X65.986 Y107.356 E53.667
G1 X64.767 Y107.008 E53.70021
G1 X63.802 Y106.352 E53.73077
G1 X63.242 Y105.614 E53.75504
G1 X62.874 Y104.962 E53.77465
G1 X62.643 Y103.942 E53.80204
G1 X62.643 Y94.748 E54.04285
G1 X62.95 Y93.659 E54.07249
G1 X63.391 Y92.859 E54.09641
G1 X63.833 Y92.41 E54.11292
G1 X64.381 Y91.985 E54.13108
G1 X65.126 Y91.604 E54.153
G1 X66.038 Y91.393 E54.17752
G1 X115.217 Y91.393 E55.46563
G1 X116.099 Y91.564 E55.48916
G1 X116.68 Y91.861 E55.50625
G1 X117.443 Y92.395 E55.53064
G1 X118.127 Y93.281 E55.55996
G1 X118.281 Y93.559 E55.56829
G1 X118.607 Y94.605 E55.59698
G1 X118.607 Y103.998 E55.84301
G1 X118.302 Y105.084 E55.87255
G1 X117.868 Y105.88 E55.8963
G1 X117.412 Y106.343 E55.91332
G1 X116.786 Y106.818 E55.9339
G1 X116.136 Y107.142 E55.95293
G0 F7200 X116.507 Y106.371
G1 F3600 X115.955 Y106.646 E55.96908
G1 X115.151 Y106.832 E55.99069
G1 X66.06 Y106.831 E57.2765
G1 X64.991 Y106.526 E57.30562
G1 X64.168 Y105.966 E57.33169
G1 X63.699 Y105.356 E57.35185
G1 X63.369 Y104.772 E57.36942
G1 X63.168 Y103.883 E57.39329
G1 X63.168 Y94.819 E57.6307
G1 X63.438 Y93.861 E57.65677
G1 X63.815 Y93.177 E57.67722
G1 X64.155 Y92.825 E57.69004
G1 X64.667 Y92.428 E57.70701
G1 X65.304 Y92.102 E57.72575
G1 X66.1 Y91.918 E57.74715
G1 X115.168 Y91.918 E59.03236
G1 X115.925 Y92.065 E59.05256
G1 X116.379 Y92.291 E59.06584
G1 X117.075 Y92.778 E59.08809
G1 X117.711 Y93.602 E59.11535
G1 X117.796 Y93.767 E59.12022
G1 X118.082 Y94.684 E59.14537
G1 X118.082 Y103.927 E59.38747
G1 X117.813 Y104.884 E59.41351
G1 X117.442 Y105.565 E59.43382
G1 X117.094 Y105.925 E59.44693
G1 X116.507 Y106.371 E59.46624
G0 F7200 X116.228 Y105.924
