;FLAVOR:Marlin
;TIME:732
;Filament used: 0.723553m
;Layer height: 0.1
;MINX:87.413
;MINY:104.913
;MINZ:0.12
;MAXX:147.587
;MAXY:125.087
;MAXZ:6.82
;TARGET_MACHINE.NAME:ELEGOO NEPTUNE 4 Pro
;Generated with Cura_SteamEngine 5.8.0
M82 ;absolute extrusion mode
;ELEGOO NEPTUNE 4 / 4 PRO
M220 S100 ;Set the feed speed to 100%
M221 S100 ;Set the flow rate to 100%
M104 S140 ;Start heating extruder
M190 S60 ;Wait for the bed to reach print temp
G90
G28 ;home
G1 Z10 F300
G1 X67.5 Y0 F6000
G1 Z0 F300
M109 S210 ;Wait for extruder to reach print temp
G92 E0 ;Reset Extruder
G1 X67.5 Y0 Z0.4 F300 ;Move to start position
G1 X167.5 E30 F400 ;Draw the first line
G1 Z0.6 F120.0 ;Move to side a little
G1 X162.5 F3000
G92 E0 ;Reset Extruder
G92 E0
G92 E0
G1 F2700 E-0.5
;LAYER_COUNT:68
;LAYER:0
M107
M204 S500
G0 F7200 X89.13 Y106.152 Z0.12
;TYPE:SKIRT
G1 F2700 E0
G1 F3600 X90.525 Y105.289 E0.04296
G1 X90.688 Y105.222 E0.04758
G1 X92.087 Y104.913 E0.08511
G1 X142.818 Y104.913 E1.41387
G1 X144.233 Y105.196 E1.45167
G1 X145.403 Y105.842 E1.48667
G1 X146.348 Y106.63 E1.5189
G1 X147.211 Y108.025 E1.56187
G1 X147.278 Y108.188 E1.56648
G1 X147.587 Y109.587 E1.60401
G1 X147.587 Y119.398 E1.86098
G1 X147.349 Y120.814 E1.89859
G1 X146.677 Y122.217 E1.93934
G1 X145.786 Y123.385 E1.97781
G1 X144.387 Y124.383 E2.02283
G1 X143.456 Y124.749 E2.04903
G1 X142.214 Y125.087 E2.08274
G1 X92.77 Y125.087 E3.3778
G1 X91.534 Y124.751 E3.41134
G1 X90.244 Y124.188 E3.44821
G1 X88.854 Y123.009 E3.49595
G1 X88.742 Y122.876 E3.50051
G1 X87.893 Y121.439 E3.54422
G1 X87.493 Y120.061 E3.5818
G1 X87.429 Y119.397 E3.59928
G1 X87.413 Y109.683 E3.85371
G1 X87.696 Y108.267 E3.89153
G1 X88.342 Y107.097 E3.92654
G1 X89.13 Y106.152 E3.95877
G0 F7200 X89.479 Y106.553
G1 F3600 X90.801 Y105.735 E3.99948
G1 X92.146 Y105.438 E4.03556
G1 X142.765 Y105.438 E5.36139
G1 X144.052 Y105.695 E5.39577
G1 X145.105 Y106.277 E5.42728
G1 X145.947 Y106.979 E5.45599
G1 X146.765 Y108.301 E5.49671
G1 X147.062 Y109.646 E5.53279
G1 X147.062 Y119.353 E5.78704
G1 X146.843 Y120.656 E5.82165
G1 X146.228 Y121.94 E5.85894
G1 X145.416 Y123.004 E5.89399
G1 X144.136 Y123.917 E5.93517
G1 X143.318 Y124.242 E5.95823
G1 X142.142 Y124.562 E5.99015
G1 X92.842 Y124.562 E7.28143
G1 X91.672 Y124.244 E7.31319
G1 X90.525 Y123.738 E7.34603
G1 X89.194 Y122.609 E7.39174
G1 X88.379 Y121.229 E7.43372
G1 X88.011 Y119.964 E7.46823
G1 X87.952 Y119.347 E7.48446
G1 X87.938 Y109.735 E7.73622
G1 X88.195 Y108.448 E7.7706
G1 X88.777 Y107.395 E7.80211
G1 X89.479 Y106.553 E7.83082
G0 F7200 X89.826 Y106.956
G1 F3600 X91.002 Y106.229 E7.86704
G1 X92.205 Y105.963 E7.89931
G1 X142.712 Y105.963 E9.2222
G1 X143.868 Y106.194 E9.25308
G1 X144.811 Y106.715 E9.2813
G1 X145.544 Y107.326 E9.30629
G1 X146.271 Y108.502 E9.34251
G1 X146.537 Y109.705 E9.37478
G1 X146.537 Y119.308 E9.6263
G1 X146.337 Y120.498 E9.65791
G1 X145.779 Y121.663 E9.69174
G1 X145.046 Y122.623 E9.72338
G1 X143.884 Y123.452 E9.76077
G1 X143.18 Y123.735 E9.78064
G1 X142.07 Y124.037 E9.81077
G1 X92.914 Y124.037 E11.09828
G1 X91.81 Y123.737 E11.12825
G1 X90.807 Y123.289 E11.15702
G1 X89.601 Y122.266 E11.19844
G1 X88.864 Y121.018 E11.2364
G1 X88.53 Y119.868 E11.26777
G1 X88.475 Y119.297 E11.28279
G1 X88.463 Y109.788 E11.53186
G1 X88.694 Y108.632 E11.56273
G1 X89.215 Y107.689 E11.59095
G1 X89.826 Y106.956 E11.61595
G0 F7200 X90.175 Y107.357
G1 F3600 X91.2 Y106.723 E11.64751
G1 X92.264 Y106.488 E11.67606
G1 X142.659 Y106.488 E12.99602
G1 X143.684 Y106.693 E13.0234
G1 X144.517 Y107.153 E13.04832
G1 X145.143 Y107.675 E13.06967
G1 X145.777 Y108.7 E13.10124
G1 X146.012 Y109.764 E13.12978
G1 X146.012 Y119.263 E13.37858
G1 X145.831 Y120.34 E13.40718
G1 X145.33 Y121.386 E13.43756
G1 X144.676 Y122.242 E13.46578
G1 X143.63 Y122.988 E13.49943
G1 X143.042 Y123.228 E13.51606
G1 X141.998 Y123.512 E13.5444
G1 X92.986 Y123.512 E14.82814
G1 X91.948 Y123.23 E14.85632
G1 X91.09 Y122.84 E14.881
G1 X90.008 Y121.923 E14.91815
G1 X89.349 Y120.807 E14.9521
G1 X89.049 Y119.773 E14.9803
G1 X88.998 Y119.246 E14.99416
G1 X88.988 Y109.841 E15.2405
G1 X89.193 Y108.816 E15.26788
G1 X89.653 Y107.983 E15.29281
G1 X90.175 Y107.357 E15.31415
G0 F7200 X90.524 Y107.758
G1 F3600 X91.398 Y107.217 E15.34108
G1 X92.323 Y107.013 E15.36589
G1 X142.606 Y107.013 E16.68292
G1 X143.5 Y107.192 E16.7068
G1 X144.223 Y107.591 E16.72843
G1 X144.742 Y108.024 E16.74613
G1 X145.283 Y108.898 E16.77305
G1 X145.487 Y109.823 E16.79786
G1 X145.487 Y119.218 E17.04394
G1 X145.325 Y120.182 E17.06955
G1 X144.881 Y121.109 E17.09647
G1 X144.306 Y121.861 E17.12126
G1 X143.376 Y122.524 E17.15118
G1 X142.843 Y122.742 E17.16626
G1 X141.928 Y122.987 E17.19107
G1 X93.058 Y122.987 E18.47109
G1 X92.086 Y122.723 E18.49747
G1 X91.375 Y122.394 E18.51799
G1 X90.415 Y121.58 E18.55096
G1 X89.834 Y120.596 E18.58089
G1 X89.568 Y119.678 E18.60592
G1 X89.521 Y119.195 E18.61863
G1 X89.513 Y109.894 E18.86225
G1 X89.692 Y109 E18.88613
G1 X90.091 Y108.277 E18.90776
G1 X90.524 Y107.758 E18.92546
G0 F7200 X90.873 Y108.16
G1 F3600 X91.599 Y107.711 E18.94782
G1 X92.382 Y107.538 E18.96882
G1 X142.553 Y107.538 E20.28292
G1 X143.318 Y107.691 E20.30336
G1 X143.924 Y108.025 E20.32148
G1 X144.34 Y108.373 E20.33568
G1 X144.789 Y109.099 E20.35804
G1 X144.962 Y109.882 E20.37905
G1 X144.962 Y119.173 E20.6224
G1 X144.819 Y120.024 E20.645
G1 X144.432 Y120.832 E20.66847
G1 X143.936 Y121.48 E20.68984
G1 X143.123 Y122.06 E20.716
G1 X142.707 Y122.235 E20.72782
G1 X141.859 Y122.462 E20.75081
G1 X93.13 Y122.462 E22.02714
G1 X92.265 Y122.227 E22.05062
G1 X91.659 Y121.947 E22.0681
G1 X90.822 Y121.237 E22.09685
G1 X90.32 Y120.386 E22.12273
G1 X90.086 Y119.581 E22.14469
G1 X90.044 Y119.145 E22.15616
G1 X90.038 Y109.947 E22.39708
G1 X90.191 Y109.182 E22.41751
G1 X90.525 Y108.576 E22.43564
G1 X90.873 Y108.16 E22.44984
G0 F7200 X91.222 Y108.561
G1 F3600 X91.797 Y108.205 E22.46755
G1 X92.441 Y108.063 E22.48483
G1 X142.5 Y108.063 E23.79599
G1 X143.135 Y108.19 E23.81295
G1 X143.67 Y108.485 E23.82895
G1 X143.939 Y108.722 E23.83834
G1 X144.295 Y109.297 E23.85606
G1 X144.437 Y109.941 E23.87333
G1 X144.437 Y119.128 E24.11396
G1 X144.313 Y119.866 E24.13356
G1 X143.983 Y120.555 E24.15357
G1 X143.566 Y121.099 E24.17152
G1 X142.867 Y121.598 E24.19402
G1 X142.571 Y121.728 E24.20249
G1 X141.79 Y121.937 E24.22366
G1 X93.202 Y121.937 E25.4963
G1 X92.444 Y121.731 E25.51687
G1 X91.943 Y121.5 E25.53132
G1 X91.229 Y120.894 E25.55585
G1 X90.805 Y120.175 E25.57771
G1 X90.605 Y119.486 E25.5965
G1 X90.567 Y119.094 E25.60682
G1 X90.563 Y110 E25.84501
G1 X90.69 Y109.365 E25.86198
G1 X90.985 Y108.83 E25.87798
G1 X91.222 Y108.561 E25.88737
G0 F7200 X91.597 Y108.929
G1 F3600 X91.996 Y108.699 E25.89943
G1 X92.5 Y108.588 E25.91295
G1 X142.5 Y108.588 E27.22257
G1 X142.881 Y108.65 E27.23268
G1 X143.416 Y108.945 E27.24868
G1 X143.571 Y109.097 E27.25436
G1 X143.801 Y109.496 E27.26643
G1 X143.912 Y110 E27.27994
G1 X143.912 Y119.083 E27.51785
G1 X143.807 Y119.706 E27.5344
G1 X143.534 Y120.277 E27.55097
G1 X143.195 Y120.719 E27.56556
G1 X142.604 Y121.141 E27.58459
G1 X142.435 Y121.221 E27.58948
G1 X141.721 Y121.412 E27.60884
G1 X93.274 Y121.412 E28.87778
G1 X92.582 Y121.224 E28.89656
G1 X92.228 Y121.053 E28.90686
G1 X91.636 Y120.551 E28.92719
G1 X91.29 Y119.964 E28.94504
G1 X91.124 Y119.391 E28.96066
G1 X91.09 Y119.043 E28.96982
G1 X91.088 Y110 E29.20668
G1 X91.15 Y109.619 E29.21679
G1 X91.445 Y109.084 E29.23279
G1 X91.597 Y108.929 E29.23848
G1 F2700 E28.73848
G0 F7200 X92.287 Y109.707
G1 F2700 E29.23848
G1 F3600 X92.5 Y109.638 E29.24434
G1 X142.5 Y109.638 E30.55396
G1 X142.664 Y109.677 E30.55838
G1 X142.793 Y109.787 E30.56282
G1 X142.862 Y110 E30.56868
G1 X142.862 Y119.083 E30.80659
G1 X142.788 Y119.436 E30.81603
G1 X142.594 Y119.808 E30.82702
G1 X142.433 Y119.99 E30.83339
G1 X142.072 Y120.231 E30.84476
G1 X141.583 Y120.362 E30.85802
G1 X93.418 Y120.362 E32.11957
G1 X92.858 Y120.21 E32.13477
G1 X92.448 Y119.863 E32.14884
G1 X92.273 Y119.586 E32.15742
G1 X92.167 Y119.275 E32.16603
G1 X92.14 Y119.043 E32.17214
G1 X92.138 Y110 E32.409
G1 X92.177 Y109.836 E32.41342
G1 X92.287 Y109.707 E32.41786
G0 F7200 X92.125 Y109.208
G1 F3600 X92.5 Y109.113 E32.42799
G1 X142.5 Y109.113 E33.73761
G1 X142.785 Y109.166 E33.7452
G1 X143.134 Y109.388 E33.75603
G1 X143.292 Y109.625 E33.76349
G1 X143.387 Y110 E33.77363
G1 X143.387 Y119.083 E34.01153
G1 X143.302 Y119.544 E34.02381
G1 X143.06 Y120.051 E34.03852
G1 X142.826 Y120.338 E34.04822
G1 X142.299 Y120.714 E34.06518
G1 X141.652 Y120.887 E34.08272
G1 X93.346 Y120.887 E35.34797
G1 X92.72 Y120.717 E35.36496
G1 X92.519 Y120.611 E35.37091
G1 X92.042 Y120.207 E35.38728
G1 X91.776 Y119.755 E35.40102
G1 X91.646 Y119.336 E35.41251
G1 X91.615 Y119.043 E35.42023
G1 X91.613 Y110 E35.65709
G1 X91.666 Y109.715 E35.66468
G1 X91.888 Y109.366 E35.67551
G1 X92.125 Y109.208 E35.68297
G1 F2700 E35.18297
;MESH:mounts-MPU9250 Mount v0.1 (Meshed).stl
G0 F7200 X92.924 Y110.424
G0 X93.41 Y114.545
G0 X93.346 Y114.545
;TYPE:WALL-INNER
G1 F2700 E35.68297
G1 F3009.6 X93.332 Y114.76 E35.68972
G1 F3048.4 X93.338 Y115.38 E35.7089
G0 F7200 X93.267 Y115.398
G0 X93.818 Y116.595
G0 X94.597 Y117.314
G0 X95.231 Y117.595
G0 X95.914 Y117.704
G0 X96.602 Y117.638
G0 X97.252 Y117.399
G0 X97.956 Y116.856
G0 X99.15 Y115
G1 F3606.9 X99.156 Y115.103 E35.7116
G1 F3600 X99.118 Y115.519 E35.72254
G1 X98.914 Y116.212 E35.74146
G1 X98.505 Y116.917 E35.76281
G1 X98.179 Y117.285 E35.77569
G1 X97.607 Y117.712 E35.79438
G1 X97.311 Y117.868 E35.80315
G1 F3474.3 X96.642 Y118.111 E35.82247
G1 X95.94 Y118.16 E35.84156
G1 F3411.6 X95.077 Y118.073 E35.86554
G1 F2855 X94.447 Y117.871 E35.88739
G1 F2547.2 X93.919 Y117.503 E35.91121
G1 X93.92 Y118.58 E35.95108
G1 X94.292 Y118.58 E35.96485
G1 F2700 X95.019 Y118.656 E35.99038
G1 F3192.6 X95.94 Y118.688 E36.0176
G1 F3474.3 X96.69 Y118.67 E36.03796
G1 F3448.9 X96.984 Y118.683 E36.04601
G1 F3566 X104.751 Y118.689 E36.25138
G1 F3600 X104.522 Y117.95 E36.27164
G1 X104.499 Y117.6 E36.28083
G1 X104.551 Y116.805 E36.3017
G1 X104.823 Y116.143 E36.32044
G1 X105.009 Y115.857 E36.32938
G1 X105.401 Y115.397 E36.34521
G1 X105.717 Y115.127 E36.3561
G1 X106.303 Y114.801 E36.37366
G1 X106.721 Y114.671 E36.38513
G1 X107.517 Y114.588 E36.40609
G1 X107.846 Y114.625 E36.41476
G1 X108.499 Y114.803 E36.43249
G1 X108.887 Y115.002 E36.44391
G1 X109.478 Y115.464 E36.46356
G1 X109.924 Y116.057 E36.48299
G1 X110.12 Y116.469 E36.49494
G1 X110.283 Y117.141 E36.51305
G1 X110.305 Y117.486 E36.52211
G1 X110.216 Y118.212 E36.54127
G1 X110.044 Y118.688 E36.55452
G1 X124.953 Y118.688 E36.94502
G1 X124.792 Y118.254 E36.95715
G1 X124.694 Y117.536 E36.97613
G1 X124.779 Y116.792 E36.99574
G1 X125.033 Y116.11 E37.01481
G1 X125.476 Y115.522 E37.03409
G1 X125.781 Y115.23 E37.04515
G1 X126.113 Y115.002 E37.0557
G1 X126.501 Y114.803 E37.06712
G1 X127.221 Y114.611 E37.08664
G1 X127.448 Y114.592 E37.0926
G1 X128.182 Y114.658 E37.1119
G1 X128.505 Y114.732 E37.12058
G1 X128.931 Y114.915 E37.13273
G1 X129.279 Y115.127 E37.1434
G1 X129.591 Y115.392 E37.15412
G1 X130.117 Y116.003 E37.17524
G1 X130.402 Y116.704 E37.19506
G1 X130.476 Y117.059 E37.20456
G1 X130.496 Y117.704 E37.22146
G1 X130.44 Y118.137 E37.2329
G1 X130.247 Y118.687 E37.24816
G1 X138.012 Y118.688 E37.45155
G1 F3500 X138.424 Y118.674 E37.46265
G1 X139.064 Y118.688 E37.4799
G1 F3423.9 X139.817 Y118.662 E37.50065
G1 F3053.3 X140.346 Y118.621 E37.51703
G1 F2692.3 X141.079 Y118.579 E37.54275
G1 F2543.7 X141.079 Y117.508 E37.58245
G1 X140.514 Y117.889 E37.60771
G1 F2779.4 X140.008 Y118.042 E37.62564
G1 F3176.5 X139.154 Y118.166 E37.65126
G1 F3357 X138.451 Y118.12 E37.67105
G1 F3500 X137.685 Y117.868 E37.69277
G1 F3600 X137.389 Y117.712 E37.70154
G1 X136.806 Y117.274 E37.72064
G1 X136.491 Y116.912 E37.7332
G1 X136.091 Y116.223 E37.75407
G1 X135.882 Y115.518 E37.77333
G1 X135.84 Y114.847 E37.79094
G1 X135.877 Y114.494 E37.80024
G1 X136.088 Y113.781 E37.81971
G1 X136.224 Y113.495 E37.82801
G1 X136.645 Y112.886 E37.8474
G1 X137.01 Y112.548 E37.86043
G1 X137.681 Y112.131 E37.88112
G1 F3487.1 X138.35 Y111.886 E37.90039
G1 X139.048 Y111.837 E37.91931
G1 F3423.9 X139.924 Y111.924 E37.94355
G1 F2859.3 X140.552 Y112.129 E37.96534
G1 F2547.2 X141.08 Y112.486 E37.98893
G1 X141.08 Y111.42 E38.02839
G1 X140.708 Y111.42 E38.04216
G1 F2876.7 X139.78 Y111.335 E38.07271
G1 F3448.9 X139.048 Y111.311 E38.09273
G1 F3487.1 X138.302 Y111.329 E38.11291
G1 F3455.2 X137.999 Y111.316 E38.12119
G1 F3552.6 X117.489 Y111.314 E38.66555
G1 F3586.3 X96.979 Y111.312 E39.20481
G1 F3513 X96.561 Y111.325 E39.21603
G1 F3506.5 X95.94 Y111.312 E39.23273
G1 F3192.6 X95.03 Y111.341 E39.25962
G1 F2703.9 X94.29 Y111.42 E39.28558
G1 F2550.6 X93.92 Y111.42 E39.29926
G1 X93.919 Y112.493 E39.33892
G1 X94.445 Y112.126 E39.36263
G1 F2703.9 X95.085 Y111.922 E39.38606
G1 F3192.6 X95.94 Y111.84 E39.41143
G1 F3506.5 X96.536 Y111.876 E39.42748
G1 F3513 X97.3 Y112.124 E39.44904
G1 F3600 X97.988 Y112.549 E39.47022
G1 X98.351 Y112.886 E39.4832
G1 X98.761 Y113.468 E39.50184
G1 X99.061 Y114.228 E39.52325
G1 X99.126 Y114.566 E39.53226
G1 F3606.9 X99.15 Y115 E39.54362
G0 F7200 X98.625 Y115
G1 F3606.9 X98.631 Y115.108 E39.54645
G1 F3600 X98.597 Y115.452 E39.55551
G1 X98.416 Y116.047 E39.5718
G1 X98.066 Y116.628 E39.58956
G1 X97.804 Y116.918 E39.5998
G1 X97.226 Y117.342 E39.61857
G1 X96.548 Y117.576 E39.63736
G1 X95.94 Y117.635 E39.65336
G1 X95.348 Y117.549 E39.66903
G1 X94.722 Y117.301 E39.68666
G1 X94.178 Y116.9 E39.70437
G1 X93.92 Y116.623 E39.71428
G1 X93.596 Y116.076 E39.73093
G1 F3281.2 X93.338 Y115.38 E39.75226
G1 X93.287 Y115.923 E39.76794
G1 F3600 X93.287 Y119.026 E39.84921
G1 X93.329 Y119.113 E39.85174
G1 X93.535 Y119.213 E39.85774
G1 X105.76 Y119.212 E40.17794
G1 X105.407 Y118.802 E40.19211
G1 X105.272 Y118.578 E40.19896
G1 X105.12 Y118.194 E40.20978
G1 X105.014 Y117.755 E40.22161
G1 X105.07 Y116.919 E40.24355
G1 X105.331 Y116.288 E40.26144
G1 X105.8 Y115.737 E40.28039
G1 X105.99 Y115.575 E40.28693
G1 X106.481 Y115.295 E40.30174
G1 X106.812 Y115.188 E40.31085
G1 X107.625 Y115.11 E40.33224
G1 X108.28 Y115.28 E40.34996
G1 X108.59 Y115.435 E40.35904
G1 X109.077 Y115.803 E40.37503
G1 X109.45 Y116.284 E40.39097
G1 X109.638 Y116.678 E40.40241
G1 X109.793 Y117.351 E40.4205
G1 X109.717 Y118.049 E40.43889
G1 X109.589 Y118.441 E40.44969
G1 X109.471 Y118.667 E40.45636
G1 X109.066 Y119.212 E40.47415
G1 X125.943 Y119.212 E40.9162
G1 X125.545 Y118.712 E40.93294
G1 X125.307 Y118.154 E40.94883
G1 X125.218 Y117.566 E40.9644
G1 X125.279 Y116.954 E40.98051
G1 X125.48 Y116.388 E40.99624
G1 X125.895 Y115.838 E41.01429
G1 X126.41 Y115.435 E41.03142
G1 X126.72 Y115.28 E41.0405
G1 X127.379 Y115.111 E41.05832
G1 X128.239 Y115.19 E41.08094
G1 X128.658 Y115.363 E41.09281
G1 X129.193 Y115.734 E41.10986
G1 X129.646 Y116.26 E41.12804
G1 X129.901 Y116.859 E41.1451
G1 X129.959 Y117.152 E41.15292
G1 X129.971 Y117.704 E41.16738
G1 X129.923 Y118.044 E41.17637
G1 X129.722 Y118.585 E41.19149
G1 X129.591 Y118.8 E41.19808
G1 X129.237 Y119.213 E41.21233
G1 X141.464 Y119.213 E41.53259
G1 X141.617 Y119.166 E41.53678
G1 X141.713 Y118.981 E41.54224
G1 X141.713 Y115.923 E41.62233
G1 F3269.9 X141.66 Y115.381 E41.63804
G1 X141.399 Y116.077 E41.65947
G1 F3600 X141.051 Y116.647 E41.67696
G1 X140.562 Y117.116 E41.69471
G1 X140.026 Y117.426 E41.71093
G1 X139.672 Y117.544 E41.7207
G1 X139.064 Y117.635 E41.73681
G1 X138.505 Y117.584 E41.75151
G1 X137.774 Y117.345 E41.77165
G1 X137.186 Y116.912 E41.79078
G1 X136.929 Y116.624 E41.80089
G1 X136.589 Y116.057 E41.8182
G1 X136.403 Y115.452 E41.83478
G1 X136.366 Y114.927 E41.84857
G1 X136.398 Y114.557 E41.8583
G1 X136.616 Y113.853 E41.8776
