;FLAVOR:Marlin
;TIME:736
;Filament used: 0.723869m
;Layer height: 0.1
;MINX:87.418
;MINY:104.918
;MINZ:0.12
;MAXX:147.582
;MAXY:125.082
;MAXZ:6.82
;TARGET_MACHINE.NAME:ELEGOO NEPTUNE 4 Pro
;Generated with Cura_SteamEngine 5.8.0
M82 ;absolute extrusion mode
;ELEGOO NEPTUNE 4 / 4 PRO
M220 S100 ;Set the feed speed to 100%
M221 S100 ;Set the flow rate to 100%
M104 S140 ;Start heating extruder
M190 S60 ;Wait for the bed to reach print temp
G90
G28 ;home
G1 Z10 F300
G1 X67.5 Y0 F6000
G1 Z0 F300
M109 S210 ;Wait for extruder to reach print temp
G92 E0 ;Reset Extruder
G1 X67.5 Y0 Z0.4 F300 ;Move to start position
G1 X167.5 E30 F400 ;Draw the first line
G1 Z0.6 F120.0 ;Move to side a little
G1 X162.5 F3000
G92 E0 ;Reset Extruder
G92 E0
G92 E0
G1 F2700 E-0.5
;LAYER_COUNT:68
;LAYER:0
M107
M204 S500
G0 F7200 X89.366 Y106.423 Z0.12
;TYPE:SKIRT
G1 F2700 E0
G1 F3600 X90.119 Y105.832 E0.02507
G1 X91.267 Y105.246 E0.05883
G1 X92.681 Y104.918 E0.09685
G1 X142.284 Y104.918 E1.39607
G1 X143.683 Y105.188 E1.43339
G1 X144.647 Y105.696 E1.46193
G1 X145.789 Y106.485 E1.49829
G1 X146.666 Y107.622 E1.5359
G1 X147.111 Y108.401 E1.5594
G1 X147.582 Y109.914 E1.6009
G1 X147.581 Y119.916 E1.86288
G1 X147.127 Y121.525 E1.90667
G1 X146.428 Y122.792 E1.94457
G1 X145.657 Y123.553 E1.97294
G1 X144.771 Y124.235 E2.00223
G1 X143.734 Y124.753 E2.03259
G1 X142.318 Y125.082 E2.07066
G1 X92.565 Y125.081 E3.37381
G1 X90.746 Y124.561 E3.42337
G1 X89.206 Y123.516 E3.47211
G1 X88.365 Y122.389 E3.50894
G1 X87.77 Y121.356 E3.54017
G1 X87.418 Y119.803 E3.58188
G1 X87.418 Y110.088 E3.83633
G1 X87.872 Y108.477 E3.88017
G1 X88.572 Y107.209 E3.91811
G1 X89.366 Y106.423 E3.94737
G0 F7200 X89.69 Y106.836
G1 F3600 X90.401 Y106.278 E3.97105
G1 X91.452 Y105.741 E4.00196
G1 X92.739 Y105.443 E4.03656
G1 X142.236 Y105.443 E5.333
G1 X143.504 Y105.688 E5.36683
G1 X144.402 Y106.161 E5.39341
G1 X145.422 Y106.87 E5.42595
G1 X146.25 Y107.943 E5.46145
G1 X146.627 Y108.612 E5.48156
G1 X147.057 Y109.993 E5.51945
G1 X147.056 Y119.845 E5.7775
G1 X146.64 Y121.321 E5.81766
G1 X146.005 Y122.472 E5.85209
G1 X145.288 Y123.179 E5.87847
G1 X144.493 Y123.787 E5.90468
G1 X143.552 Y124.257 E5.93223
G1 X142.259 Y124.557 E5.967
G1 X92.639 Y124.556 E7.26666
G1 X90.97 Y124.079 E7.31213
G1 X89.574 Y123.132 E7.35631
G1 X88.82 Y122.127 E7.38922
G1 X88.264 Y121.162 E7.41839
G1 X87.943 Y119.744 E7.45647
G1 X87.943 Y110.16 E7.7075
G1 X88.361 Y108.678 E7.74783
G1 X88.994 Y107.53 E7.78217
G1 X89.69 Y106.836 E7.80791
G0 F7200 X90.014 Y107.249
G1 F3600 X90.683 Y106.724 E7.83019
G1 X91.637 Y106.237 E7.85824
G1 X92.798 Y105.968 E7.88946
G1 X142.188 Y105.968 E9.1831
G1 X143.325 Y106.188 E9.21343
G1 X144.157 Y106.626 E9.23806
G1 X145.054 Y107.254 E9.26674
G1 X145.834 Y108.264 E9.30016
G1 X146.142 Y108.82 E9.31681
G1 X146.532 Y110.072 E9.35116
G1 X146.531 Y119.774 E9.60527
G1 X146.152 Y121.119 E9.64187
G1 X145.582 Y122.153 E9.6728
G1 X144.92 Y122.805 E9.69714
G1 X144.216 Y123.339 E9.72028
G1 X143.372 Y123.76 E9.74499
G1 X142.2 Y124.032 E9.7765
G1 X92.713 Y124.031 E11.07268
G1 X91.194 Y123.597 E11.11406
G1 X89.942 Y122.747 E11.15369
G1 X89.24 Y121.812 E11.18432
G1 X88.759 Y120.969 E11.20974
G1 X88.468 Y119.685 E11.24422
G1 X88.468 Y110.231 E11.49185
G1 X88.849 Y108.88 E11.52861
G1 X89.418 Y107.848 E11.55948
G1 X90.014 Y107.249 E11.58161
G0 F7200 X90.386 Y107.62
G1 F3600 X90.97 Y107.167 E11.60097
G1 X91.819 Y106.733 E11.62594
G1 X92.856 Y106.493 E11.65382
G1 X142.14 Y106.493 E12.94469
G1 X143.148 Y106.688 E12.97158
G1 X143.856 Y107.056 E12.99248
G1 X144.686 Y107.637 E13.01902
G1 X145.418 Y108.585 E13.05039
G1 X145.657 Y109.028 E13.06357
G1 X146.007 Y110.151 E13.09438
G1 X146.006 Y119.703 E13.34457
G1 X145.664 Y120.917 E13.37761
G1 X145.159 Y121.834 E13.40502
G1 X144.603 Y122.387 E13.42556
G1 X143.94 Y122.89 E13.44736
G1 X143.192 Y123.263 E13.46925
G1 X142.141 Y123.507 E13.49751
G1 X92.787 Y123.506 E14.79021
G1 X91.418 Y123.115 E14.8275
G1 X90.31 Y122.362 E14.86259
G1 X89.66 Y121.497 E14.89093
G1 X89.254 Y120.777 E14.91258
G1 X88.993 Y119.626 E14.9435
G1 X88.993 Y110.302 E15.18771
G1 X89.337 Y109.082 E15.22091
G1 X89.841 Y108.167 E15.24827
G1 X90.386 Y107.62 E15.2685
G0 F7200 X90.708 Y108.035
G1 F3600 X91.256 Y107.61 E15.28666
G1 X92.001 Y107.229 E15.30858
G1 X92.913 Y107.018 E15.3331
G1 X142.092 Y107.018 E16.62121
G1 X142.974 Y107.189 E16.64474
G1 X143.555 Y107.486 E16.66184
G1 X144.318 Y108.02 E16.68623
G1 X145.002 Y108.906 E16.71555
G1 X145.156 Y109.184 E16.72387
G1 X145.482 Y110.23 E16.75257
G1 X145.481 Y119.631 E16.9988
G1 X145.175 Y120.716 E17.02833
G1 X144.735 Y121.516 E17.05224
G1 X144.285 Y121.969 E17.06897
G1 X143.661 Y122.443 E17.08949
G1 X143.011 Y122.767 E17.10851
G1 X142.083 Y122.982 E17.13346
G1 X92.861 Y122.981 E18.42271
G1 X91.642 Y122.633 E18.45591
G1 X90.677 Y121.977 E18.48647
G1 X90.117 Y121.239 E18.51074
G1 X89.749 Y120.587 E18.53035
G1 X89.518 Y119.567 E18.55774
G1 X89.518 Y110.373 E18.79855
G1 X89.825 Y109.284 E18.82819
G1 X90.266 Y108.484 E18.85211
G1 X90.708 Y108.035 E18.86862
G0 F7200 X91.03 Y108.45
G1 F3600 X91.542 Y108.053 E18.88559
G1 X92.179 Y107.727 E18.90433
G1 X92.975 Y107.543 E18.92573
G1 X142.043 Y107.543 E20.21093
G1 X142.8 Y107.69 E20.23113
G1 X143.254 Y107.916 E20.24442
G1 X143.95 Y108.403 E20.26666
G1 X144.586 Y109.227 E20.29393
G1 X144.671 Y109.392 E20.29879
G1 X144.957 Y110.309 E20.32395
G1 X144.956 Y119.56 E20.56625
G1 X144.687 Y120.514 E20.59222
G1 X144.311 Y121.197 E20.61264
G1 X143.967 Y121.551 E20.62557
G1 X143.382 Y121.996 E20.64482
G1 X142.83 Y122.271 E20.66097
G1 X142.026 Y122.457 E20.68259
G1 X92.935 Y122.456 E21.9684
G1 X91.866 Y122.151 E21.99751
G1 X91.043 Y121.591 E22.02359
G1 X90.574 Y120.981 E22.04374
G1 X90.244 Y120.397 E22.06131
G1 X90.043 Y119.508 E22.08518
G1 X90.043 Y110.444 E22.32259
G1 X90.313 Y109.486 E22.34866
G1 X90.69 Y108.802 E22.36912
G1 X91.03 Y108.45 E22.38193
G0 F7200 X91.352 Y108.865
G1 F3600 X91.828 Y108.496 E22.39771
G1 X92.357 Y108.225 E22.41328
G1 X93.037 Y108.068 E22.43156
G1 X141.995 Y108.068 E23.71388
G1 X142.63 Y108.191 E23.73082
G1 X142.953 Y108.346 E23.74021
G1 X143.582 Y108.786 E23.76031
G1 X144.17 Y109.548 E23.78552
G1 X144.432 Y110.388 E23.80857
G1 X144.431 Y119.488 E24.04692
G1 X144.198 Y120.313 E24.06937
G1 X143.885 Y120.882 E24.08638
G1 X143.649 Y121.133 E24.09541
G1 X143.103 Y121.549 E24.11339
G1 X142.653 Y121.773 E24.12655
G1 X141.964 Y121.932 E24.14507
G1 X93.009 Y121.931 E25.42732
G1 X92.09 Y121.669 E25.45235
G1 X91.408 Y121.205 E25.47396
G1 X90.99 Y120.661 E25.49192
G1 X90.739 Y120.207 E25.50551
G1 X90.568 Y119.45 E25.52584
G1 X90.568 Y110.516 E25.75984
G1 X90.802 Y109.687 E25.7824
G1 X91.116 Y109.116 E25.79947
G1 X91.352 Y108.865 E25.8085
G0 F7200 X91.674 Y109.28
G1 F3600 X92.15 Y108.911 E25.82427
G1 X92.475 Y108.737 E25.83393
G1 X93.099 Y108.593 E25.8507
G1 X141.947 Y108.593 E27.13014
G1 X142.463 Y108.693 E27.14391
G1 X142.652 Y108.776 E27.14932
G1 X143.214 Y109.169 E27.16728
G1 X143.698 Y109.796 E27.18803
G1 X143.907 Y110.467 E27.20643
G1 X143.906 Y119.416 E27.44083
G1 X143.709 Y120.112 E27.45978
G1 X143.456 Y120.572 E27.47353
G1 X143.327 Y120.718 E27.47863
G1 X142.851 Y121.088 E27.49442
G1 X142.535 Y121.261 E27.50386
G1 X141.902 Y121.407 E27.52087
G1 X93.083 Y121.406 E28.79956
G1 X92.314 Y121.187 E28.8205
G1 X91.773 Y120.819 E28.83764
G1 X91.406 Y120.341 E28.85342
G1 X91.234 Y120.019 E28.86298
G1 X91.093 Y119.393 E28.87979
G1 X91.093 Y110.588 E29.11041
G1 X91.291 Y109.888 E29.12947
G1 X91.545 Y109.426 E29.14328
G1 X91.674 Y109.28 E29.14838
G1 F2700 E28.64838
G0 F7200 X92.394 Y110.051
G1 F2700 E29.14838
G1 F3600 X92.794 Y109.741 E29.16163
G1 X93.161 Y109.643 E29.17158
G1 X141.947 Y109.643 E30.4494
G1 X142.136 Y109.696 E30.45455
G1 X142.547 Y109.984 E30.46769
G1 X142.793 Y110.34 E30.47902
G1 X142.857 Y110.546 E30.48467
G1 X142.856 Y119.344 E30.71511
G1 X142.705 Y119.806 E30.72785
G1 X142.607 Y119.948 E30.73236
G1 X142.207 Y120.259 E30.74564
G1 X141.84 Y120.357 E30.75559
G1 X93.156 Y120.356 E32.03073
G1 X92.69 Y120.203 E32.04358
G1 X92.547 Y120.103 E32.04815
G1 X92.238 Y119.701 E32.06143
G1 X92.143 Y119.336 E32.07131
G1 X92.143 Y110.66 E32.29855
G1 X92.295 Y110.194 E32.31139
G1 X92.394 Y110.051 E32.31595
G0 F7200 X91.996 Y109.695
G1 F3600 X92.472 Y109.326 E32.33172
G1 X92.659 Y109.234 E32.33718
G1 X93.161 Y109.118 E32.35068
G1 X141.947 Y109.118 E33.6285
G1 X142.351 Y109.206 E33.63933
G1 X142.848 Y109.554 E33.65522
G1 X143.225 Y110.042 E33.67137
G1 X143.382 Y110.546 E33.6852
G1 X143.381 Y119.344 E33.91564
G1 X143.204 Y119.969 E33.93265
G1 X143.005 Y120.303 E33.94284
G1 X142.529 Y120.673 E33.95863
G1 X142.347 Y120.765 E33.96397
G1 X141.84 Y120.882 E33.9776
G1 X93.156 Y120.881 E35.25275
G1 X92.526 Y120.702 E35.2699
G1 X92.189 Y120.499 E35.2802
G1 X91.822 Y120.021 E35.29599
G1 X91.73 Y119.833 E35.30147
G1 X91.618 Y119.336 E35.31481
G1 X91.618 Y110.66 E35.54206
G1 X91.796 Y110.031 E35.55918
G1 X91.996 Y109.695 E35.56942
G1 F2700 E35.06942
;MESH:mounts-MPU9250 Mount v0.4 (Meshed).stl
G0 F7200 X92.996 Y110.576
G0 X93.415 Y114.446
G0 X93.406 Y114.446
;TYPE:WALL-INNER
G1 F2700 E35.56942
G1 F2603.3 X93.378 Y115.108 E35.59342
G1 F2680.9 X93.384 Y115.26 E35.59877
G0 F7200 X93.415 Y115.26
G0 X93.816 Y116.423
G0 X94.254 Y116.934
G0 X95.422 Y117.541
G0 X96.09 Y117.604
G0 X97.326 Y117.238
G0 X98.009 Y116.638
G0 X99.056 Y115
G1 F3606.9 X99.038 Y115.387 E35.6089
G1 F3600 X98.894 Y115.981 E35.62491
G1 X98.549 Y116.683 E35.6454
G1 X98.042 Y117.27 E35.66571
G1 F3442.6 X97.586 Y117.625 E35.68154
G1 F3165.8 X96.731 Y118.016 E35.70954
G1 F3171.1 X96.064 Y118.083 E35.72948
G1 F3203.4 X95.291 Y118.035 E35.75227
G1 F2727.3 X94.515 Y117.821 E35.7801
G1 F2432.4 X93.942 Y117.433 E35.80693
G1 X93.943 Y118.553 E35.85035
G1 X94.332 Y118.553 E35.86543
G1 F2727.3 X95.207 Y118.637 E35.89582
G1 F3203.4 X96.064 Y118.657 E35.92105
G1 F3171.1 X96.784 Y118.632 E35.94247
G1 F3298.4 X97.203 Y118.68 E35.95453
G1 F3600 X104.862 Y118.68 E36.15514
G1 X104.675 Y118.147 E36.16993
G1 X104.599 Y117.578 E36.18497
G1 X104.613 Y117.146 E36.19629
G1 X104.755 Y116.541 E36.21256
G1 X104.993 Y116.042 E36.22704
G1 X105.198 Y115.766 E36.23605
G1 X105.598 Y115.354 E36.25109
G1 X105.925 Y115.109 E36.26179
G1 X106.575 Y114.814 E36.28049
G1 X107.025 Y114.711 E36.29258
G1 X107.678 Y114.704 E36.30968
G1 X108.089 Y114.784 E36.32065
G1 X108.633 Y114.984 E36.33583
G1 X108.998 Y115.19 E36.34681
G1 X109.295 Y115.426 E36.35675
G1 X109.761 Y115.981 E36.37573
G1 X110.064 Y116.613 E36.39409
G1 X110.151 Y116.948 E36.40315
G1 X110.2 Y117.653 E36.42166
G1 X110.156 Y118.029 E36.43158
G1 X109.94 Y118.68 E36.44954
G1 X125.056 Y118.68 E36.84547
G1 X124.866 Y118.105 E36.86133
G1 X124.8 Y117.692 E36.87228
G1 X124.8 Y117.304 E36.88245
G1 X124.866 Y116.891 E36.8934
G1 X125.1 Y116.189 E36.91278
G1 X125.465 Y115.671 E36.92938
G1 X126.008 Y115.184 E36.94848
G1 X126.364 Y114.985 E36.95917
G1 X127.062 Y114.727 E36.97866
G1 X127.744 Y114.692 E36.99654
G1 X128.418 Y114.815 E37.01449
G1 X128.793 Y114.967 E37.02509
G1 X129.285 Y115.263 E37.04013
G1 X129.608 Y115.538 E37.05124
G1 X130.003 Y116.042 E37.06801
G1 X130.276 Y116.631 E37.08501
G1 X130.385 Y117.159 E37.09913
G1 X130.398 Y117.569 E37.10988
G1 X130.327 Y118.138 E37.1249
G1 X130.139 Y118.68 E37.13992
G1 X137.801 Y118.679 E37.34061
G1 F3310 X138.235 Y118.632 E37.35305
G1 F3181.8 X138.948 Y118.657 E37.37419
G1 F3203.4 X139.674 Y118.639 E37.39556
G1 F2731.2 X140.665 Y118.554 E37.4299
G1 F2432.4 X141.054 Y118.554 E37.44498
G1 X141.054 Y117.439 E37.48821
G1 X140.483 Y117.822 E37.51486
G1 F2574.9 X139.725 Y118.03 E37.54364
G1 F2990.5 X138.948 Y118.083 E37.5682
G1 F3181.8 X138.284 Y118.018 E37.58797
G1 F3310 X137.562 Y117.697 E37.61048
G1 F3600 X136.923 Y117.243 E37.63101
G1 X136.69 Y117.004 E37.63975
G1 X136.289 Y116.424 E37.65822
G1 X136.106 Y115.985 E37.67068
G1 X135.954 Y115.307 E37.68888
G1 X135.954 Y114.694 E37.70493
G1 X136.105 Y114.013 E37.7232
G1 X136.237 Y113.687 E37.73242
G1 X136.457 Y113.303 E37.74401
G1 X136.952 Y112.728 E37.76388
G1 X137.337 Y112.426 E37.7767
G1 X137.97 Y112.119 E37.79512
G1 F3369 X138.487 Y111.944 E37.8104
G1 F3171.1 X139.368 Y111.911 E37.83661
G1 F3375 X140.215 Y112.194 E37.86156
G1 F3600 X140.88 Y112.589 E37.88182
G1 X141.18 Y112.861 E37.89243
G1 X141.18 Y111.316 E37.9329
G1 X139.977 Y111.316 E37.96441
G1 F3369 X138.436 Y111.352 E38.00755
G1 F3339.2 X138.04 Y111.317 E38.01877
G1 F3546 X124.43 Y111.317 E38.38068
G1 F3566 X110.82 Y111.317 E38.74056
G1 F3586.3 X97.21 Y111.317 E39.09839
G1 F3351.1 X96.639 Y111.356 E39.1145
G1 F3203.4 X95.832 Y111.341 E39.13826
G1 F3088.2 X95.016 Y111.377 E39.16319
G1 F2650.8 X94.333 Y111.443 E39.1876
G1 F2426.2 X93.943 Y111.443 E39.20276
G1 X93.944 Y112.557 E39.24606
G1 X94.514 Y112.178 E39.27266
G1 F2647.1 X94.921 Y112.043 E39.28793
G1 F3000 X95.711 Y111.914 E39.31309
G1 F3214.3 X96.633 Y111.955 E39.34017
G1 F3474.3 X97.444 Y112.308 E39.36417
G1 F3600 X98.066 Y112.747 E39.38411
G1 X98.309 Y112.996 E39.39323
G1 X98.741 Y113.648 E39.41371
G1 X98.994 Y114.391 E39.43427
G1 X99.059 Y114.934 E39.44859
G1 F3606.9 X99.056 Y115 E39.45032
G0 F7200 X98.533 Y115
G1 F3606.9 X98.517 Y115.321 E39.45872
G1 F3600 X98.386 Y115.848 E39.47295
G1 X98.048 Y116.511 E39.49244
G1 X97.549 Y117.005 E39.51083
G1 X97.229 Y117.211 E39.5208
G1 X96.626 Y117.453 E39.53782
G1 X96.064 Y117.535 E39.55269
G1 X95.428 Y117.479 E39.56941
G1 X94.821 Y117.247 E39.58644
G1 X94.375 Y116.94 E39.60062
G1 X93.935 Y116.466 E39.61756
G1 X93.631 Y115.9 E39.63438
G1 F3058.3 X93.384 Y115.26 E39.65554
G1 X93.292 Y115.735 E39.67045
G1 F3600 X93.291 Y119.202 E39.76126
G1 X105.893 Y119.205 E40.09134
G1 X105.544 Y118.826 E40.10483
G1 X105.269 Y118.318 E40.11996
G1 X105.196 Y118.077 E40.12656
G1 X105.119 Y117.509 E40.14157
G1 X105.128 Y117.249 E40.14839
G1 X105.225 Y116.788 E40.16073
G1 X105.487 Y116.222 E40.17706
G1 X105.975 Y115.719 E40.19542
G1 X106.171 Y115.572 E40.20183
G1 X106.694 Y115.325 E40.21698
G1 X107.116 Y115.228 E40.22833
G1 X107.661 Y115.229 E40.2426
G1 X107.908 Y115.277 E40.24919
G1 X108.452 Y115.477 E40.26437
G1 X108.671 Y115.6 E40.27095
G1 X109.108 Y115.982 E40.28615
G1 X109.437 Y116.467 E40.3015
G1 X109.63 Y117.012 E40.31665
G1 X109.678 Y117.404 E40.32699
G1 X109.635 Y117.968 E40.34181
G1 X109.58 Y118.176 E40.34744
G1 X109.337 Y118.705 E40.36269
G1 X109.109 Y119.013 E40.37273
G1 X108.91 Y119.205 E40.37997
G1 X126.085 Y119.204 E40.82982
G1 X125.887 Y119.013 E40.83703
G1 X125.545 Y118.484 E40.85353
G1 X125.365 Y117.94 E40.86854
G1 X125.325 Y117.692 E40.87512
G1 X125.364 Y117.056 E40.89181
G1 X125.577 Y116.417 E40.90945
G1 X125.887 Y115.983 E40.92342
G1 X126.333 Y115.597 E40.93887
G1 X126.546 Y115.477 E40.94527
G1 X127.181 Y115.242 E40.96301
G1 X127.744 Y115.217 E40.97777
G1 X128.298 Y115.326 E40.99255
G1 X128.522 Y115.417 E40.99889
G1 X129.014 Y115.713 E41.01393
G1 X129.208 Y115.878 E41.0206
G1 X129.544 Y116.297 E41.03466
G1 X129.775 Y116.788 E41.04888
G1 X129.87 Y117.257 E41.06141
G1 X129.877 Y117.503 E41.06786
G1 X129.806 Y118.072 E41.08288
G1 X129.732 Y118.318 E41.0896
G1 X129.421 Y118.865 E41.10609
G1 X129.091 Y119.205 E41.1185
G1 X141.701 Y119.204 E41.44878
G1 X141.705 Y115.724 E41.53993
G1 F3058.3 X141.612 Y115.26 E41.55452
G1 X141.368 Y115.899 E41.57561
G1 F3600 X141.172 Y116.299 E41.58728
G1 X140.718 Y116.881 E41.60661
G1 X140.178 Y117.247 E41.6237
G1 X139.573 Y117.475 E41.64063
G1 X138.948 Y117.535 E41.65708
G1 X138.374 Y117.454 E41.67226
G1 X137.677 Y117.179 E41.69189
G1 X137.11 Y116.689 E41.71151
G1 X136.764 Y116.2 E41.7272
G1 X136.614 Y115.852 E41.73713
G1 X136.478 Y115.274 E41.75268
